X:395
T:Humours Of Ayle House, The
T:Shoemaker's Fancy, The
R:jig
H:See also The Kilfinane Jig, #382, The Shoemaker's Fancy, #509
B:Roche 93
D:Terry Bingham
Z:id:hn-jig-395
M:6/8
L:1/8
K:D
FDE F2d | cAA BAG | FDE F2d | cAF G2A |
FDE F2d | cAB cde | fef ded |1 cAF G2A :|2 cAF G2A ||
|: cAA fed | cAA A2B | cAA fed | cAF G2A |
cAA fed | cAB cde | fef ded |1 cAF G2A :|2 cAF G2A ||
P:variations
|: FDE FdB | cAA BAG | FDE FdB | cAF GAG |
FDE FdB | cAB cde | faf ded |1 cAF GAG :|2 cAF GAB ||
|: cAA fed | cAA A2B | cAA fed | cAF GAB |
cAA fed | cAB cde | faf ded |1 cAF GAB :|2 cAF GAG ||

